X:60
T:Miss McLeod's
S:The Session: https://thesession.org/tunes/75#setting75
S:https://JamBuddy.live 2025
C:Traditional
R:reel
K:G
M:4/4
L:1/8
Q:120
|: G2 BG AGBG| B2 BA BcBA| G2 BG AGBG| A2 AG AcBA|
! G2 BG AGBG| B2 BA B2 d2| e2 ef edef| gfed BcBA:| ! |:
G2 gf edeg| B2 BA BcBA| G2 gf edeg| a2 ag aeef|
! g2 gf edeg| BcBA B2 d2| edef edef| gfed BcBA:|

